!!!OTL: Drei Mörder (2-36) S. 114
!!!id: P0909
**kern
*clefG2
*k[]
*G:
{8d
=1
4.g
8d
4g
4a
=2
4b
8b
8a
2g}
=3
{4.b
8dd
4.dd
8cc
=4
2b
4.a}
=5
{8d
=6
4.g
8d
4g
4a
=7
4b
8b
8a
2g}
=8
{4g
8b
8cc
2dd
=9
4dd
4ee
2dd}
=10
{4a
4cc
4b
8a
8a
=11
4b
4a
2g}
=12
{4g
8b
8cc
2dd
=13
4dd
4ee
2dd}
=14
{4a
4cc
4b
8a
8a
=15
4b
4a
2g}
==
*-
!!!minrhy: 8
!!!meters: 4/4 ]  ZZ[7
!!!cut: Drei Mörder (2-36) S. 114
!!!reg: Lothringen
!!!trd: PINCK, Louis: Verklingende Weisen, Bd 2, Metz 1928
!!!rhy1: X  X_.XX_X_  X_XXX__
!!!rhy2: X_.XX_.X  X__X_.
!!!key: P0909  08  G 4/4 ]  ZZ[7
!!!mod: SECHSTONSKALA DUR ?]  AMBITUS[9
!!!kad: 1215151
!!!akz: 1131_3532_1131_1555_2331_1555_2331_
!!!fot: 'a__b__a__c__d__c__d__
!!!for: 'a__b__a__c__d__c__d__
!!!fok: '^a_^d_^a_/__^d_/__^d_
!! PHRAS[VORWIEGEND VOLLTAKTIG]
!!!fkt: Vergewaltigung, Mord
!! LOTH VKL
!! PR[44] 2K[0] 2G[0] 3K[11] 3G[16] 4A[5] 4Ü[0] 5A[0] 6K[0] 6G[0]
!! 7K[0] 7G[0] 8A[0] MEHR[0] SI[32] ABS[57] SR[0] SP[32]
!! ST[12] 2k[0] 2g[11] 3k[0] 3g[0] 4d[4] 4ü[0] 5d[11] 6k[0] 6g[0]
!! 7k[0] 7g[0] 8d[0] mehr[0] si[25] dm[+7] sr[11] sp[14]
!! 1F[7] 2F[71] 3F[17] 4F[0] LF[0] 2P[0] 3P[5] 4P[0] TRI[0] DF[4] AB[58]
!! TF[0] U3K[0] U3[0] U4[0] U4Ü[0] U5[16] U6K[0] U6[0] U7K[0] U7[5]
!! N1[29] N2K[0] N2[21] N3K[0] N3[24] N4[0] N4Ü[0] N5[5] N6K[0] N6[0]
!!!n7k: 0] N7[0] O1[0] O2K[0] O2[0] O3K[0] O3[0] HÖ[0
